web/packages/design/src/ResourceIcon/assets/orbit.love.svg

<svg width="72" height="72" viewBox="0 0 72 72" fill="none" xmlns="http://www.w3.org/2000/svg">
<g clip-path="url(#clip0_17013_11961)">
<path fill-rule="evenodd" clip-rule="evenodd" d="M57.6144 32.7803C57.0846 28.7966 55.5794 25.0033 53.2311 21.7333C50.8826 18.4633 47.7629 15.8168 44.1457 14.026C40.5285 12.2353 36.5246 11.3551 32.4855 11.4629C28.4464 11.5706 24.4956 12.663 20.9802 14.644C17.4648 16.625 14.4921 19.4341 12.3234 22.8246C10.1547 26.2151 8.85616 30.0833 8.54181 34.0895C8.22753 38.0957 8.90707 42.1174 10.5208 45.8013C12.1345 49.4853 14.6331 52.7189 17.797 55.2183C20.2193 54.1455 22.8679 52.8933 25.681 51.4888C22.8357 50.1331 20.4181 48.0283 18.6906 45.4029C16.963 42.7775 15.9914 39.7316 15.8813 36.5959C15.7712 33.4602 16.5267 30.3544 18.0658 27.6154C19.605 24.8765 21.869 22.6091 24.6122 21.0593C27.3554 19.5094 30.473 18.7364 33.6268 18.8239C36.7805 18.9115 39.8499 19.8564 42.5018 21.556C45.1538 23.2557 47.2871 25.6451 48.6702 28.4652C50.0533 31.2853 50.6334 34.4282 50.3475 37.5529C52.9526 35.9098 55.3886 34.3098 57.6144 32.7803ZM57.8224 35.5621C55.3292 37.3961 52.5664 39.296 49.5956 41.2119C48.2687 45.3509 45.4143 48.8363 41.6071 50.9662C37.7999 53.0961 33.3226 53.7124 29.0768 52.6911C25.8204 54.2479 22.7308 55.5955 19.9017 56.7114C23.6645 59.0913 28.0055 60.4129 32.4632 60.5356C36.9208 60.6583 41.3286 59.5776 45.2181 57.4084C49.1076 55.2391 52.3334 52.0623 54.5528 48.2157C56.7721 44.369 57.902 39.9962 57.8224 35.5621Z" fill="url(#paint0_linear_17013_11961)"/>
<path fill-rule="evenodd" clip-rule="evenodd" d="M62.1278 54.8572C62.6879 54.8577 63.2356 54.6929 63.7015 54.3838C64.1674 54.0746 64.5306 53.635 64.7453 53.1205C64.96 52.606 65.0163 52.0398 64.9073 51.4935C64.7983 50.9471 64.5289 50.4452 64.133 50.0511C63.7371 49.6571 63.2326 49.3887 62.6833 49.2798C62.134 49.1711 61.5646 49.2266 61.0471 49.4397C60.5296 49.6527 60.0873 50.0137 59.776 50.4768C59.4649 50.9399 59.2988 51.4844 59.2988 52.0414C59.2988 52.7878 59.5967 53.5036 60.1272 54.0317C60.6577 54.5597 61.3773 54.8566 62.1278 54.8572Z" fill="#00CCF5"/>
<path fill-rule="evenodd" clip-rule="evenodd" d="M59.075 15.5992C59.409 15.5992 59.7355 15.5007 60.0132 15.3162C60.2909 15.1316 60.5074 14.8693 60.6352 14.5625C60.763 14.2556 60.7965 13.9178 60.7314 13.5921C60.6662 13.2663 60.5054 12.967 60.2692 12.7321C60.033 12.4973 59.7321 12.3373 59.4045 12.2725C59.0769 12.2077 58.7373 12.241 58.4287 12.3681C58.1202 12.4952 57.8564 12.7105 57.6709 12.9867C57.4853 13.2629 57.3862 13.5876 57.3862 13.9197C57.386 14.1404 57.4294 14.3589 57.5142 14.5628C57.5989 14.7667 57.7233 14.952 57.8802 15.108C58.0371 15.264 58.2234 15.3877 58.4284 15.472C58.6334 15.5563 58.8532 15.5995 59.075 15.5992Z" fill="#00CCF5"/>
<path fill-rule="evenodd" clip-rule="evenodd" d="M2.25094 44.1353C2.69642 44.1353 3.13189 44.0038 3.5022 43.7576C3.87251 43.5113 4.16101 43.1613 4.33117 42.7518C4.50134 42.3424 4.54551 41.8919 4.4581 41.4575C4.3707 41.0231 4.15563 40.6242 3.84015 40.3115C3.52467 39.9986 3.12294 39.786 2.68586 39.7004C2.24877 39.6148 1.79597 39.6601 1.38478 39.8306C0.973606 40.001 0.622532 40.289 0.376024 40.6581C0.129514 41.0271 -0.00134636 41.4605 1.04448e-05 41.9036C0.00182506 42.4961 0.239777 43.0637 0.661712 43.4821C1.08364 43.9004 1.65514 44.1353 2.25094 44.1353Z" fill="#00CCF5"/>
<path fill-rule="evenodd" clip-rule="evenodd" d="M40.265 30.9495C42.6964 29.6132 45.0639 28.3451 47.3491 27.1746C47.4337 27.311 47.5251 27.4723 47.6211 27.6541C45.3564 28.8314 42.989 30.1041 40.5575 31.4426L40.265 30.9495ZM71.8465 19.0249C70.761 17.1545 64.1797 19.1408 54.8652 23.4702C54.952 23.6134 55.0388 23.7611 55.1211 23.9111C64.0449 19.6863 70.272 17.6522 71.0627 19.2885C72.306 21.4294 58.037 31.9335 39.207 42.7491C20.3769 53.5646 4.09245 60.5962 2.8493 58.4555C2.14089 57.1827 5.64411 53.7147 8.79084 50.9556C4.25928 54.5919 1.88266 57.3941 2.6642 58.7395C4.43752 61.7963 21.6017 55.785 40.7083 44.8217C59.8149 33.8585 73.6286 22.0816 71.8465 19.0249Z" fill="#00CCF5"/>
<path d="M38.028 32.7259C37.6254 32.0388 37.4749 31.2341 37.6021 30.4489C37.7294 29.6638 38.1267 28.9469 38.726 28.4203C39.3254 27.8939 40.0898 27.5904 40.889 27.5618C41.6881 27.5332 42.4726 27.7811 43.1085 28.2634C43.7444 28.7456 44.1924 29.4323 44.3761 30.2063C44.5599 30.9803 44.468 31.7937 44.1161 32.5078C43.7643 33.222 43.1742 33.7927 42.4465 34.1226C41.7189 34.4524 40.8987 34.5211 40.1259 34.3168C39.6858 34.2075 39.2727 34.01 38.912 33.7365C38.5513 33.463 38.2505 33.1191 38.028 32.7259Z" fill="#FA00E9"/>
</g>
<defs>
<linearGradient id="paint0_linear_17013_11961" x1="6.98627" y1="10.2268" x2="57.5505" y2="60.8207" gradientUnits="userSpaceOnUse">
<stop offset="0.09375" stop-color="#FA00E9"/>
<stop offset="1" stop-color="#3860FF"/>
</linearGradient>
<clipPath id="clip0_17013_11961">
<rect width="72" height="72" fill="white"/>
</clipPath>
</defs>
</svg>

<svg xmlns="http://www.w3.org/2000/svg" width="72" height="72" fill="none" viewBox="0 0 72 72"><g clip-path="url(#a)"><path fill="url(#b)" fill-rule="evenodd" d="M57.614 32.78a24.5 24.5 0 0 0-4.383-11.047 24.65 24.65 0 0 0-9.085-7.707 24.8 24.8 0 0 0-23.166.618 24.6 24.6 0 0 0-8.657 8.18 24.42 24.42 0 0 0-1.803 22.977 24.56 24.56 0 0 0 7.277 9.417 191 191 0 0 0 7.884-3.73 17.25 17.25 0 0 1-6.99-6.085 17.1 17.1 0 0 1-.625-17.787 17.2 17.2 0 0 1 6.546-6.557 17.35 17.35 0 0 1 17.89.497 17.2 17.2 0 0 1 6.168 6.91 17.1 17.1 0 0 1 1.677 9.087 222 222 0 0 0 7.267-4.773m.208 2.782a164 164 0 0 1-8.226 5.65 17.2 17.2 0 0 1-7.989 9.754 17.36 17.36 0 0 1-12.53 1.725 144 144 0 0 1-9.175 4.02 24.79 24.79 0 0 0 25.316.697 24.6 24.6 0 0 0 9.335-9.192 24.44 24.44 0 0 0 3.27-12.654" clip-rule="evenodd"/><path fill="#00ccf5" fill-rule="evenodd" d="M62.128 54.857c.56 0 1.108-.164 1.574-.473a2.8 2.8 0 0 0 1.043-1.264 2.8 2.8 0 0 0-.612-3.069 2.84 2.84 0 0 0-3.086-.611 2.83 2.83 0 0 0-1.271 1.037 2.806 2.806 0 0 0 .351 3.555 2.84 2.84 0 0 0 2 .825M59.075 15.6a1.7 1.7 0 0 0 1.56-1.037 1.67 1.67 0 0 0-.366-1.83 1.692 1.692 0 0 0-2.883 1.187 1.67 1.67 0 0 0 .494 1.188 1.7 1.7 0 0 0 1.195.491M2.25 44.135c.446 0 .882-.131 1.252-.377a2.227 2.227 0 0 0 .338-3.446 2.25 2.25 0 0 0-2.455-.481c-.411.17-.762.458-1.009.827a2.23 2.23 0 0 0 .286 2.824c.422.418.993.653 1.589.653M40.265 30.95a277 277 0 0 1 7.084-3.775q.128.205.272.48a339 339 0 0 0-7.064 3.788zm31.582-11.925c-1.086-1.87-7.667.116-16.982 4.445q.132.215.256.441c8.924-4.225 15.151-6.259 15.942-4.623 1.243 2.141-13.026 12.645-31.856 23.461S4.092 60.596 2.849 58.455c-.708-1.272 2.795-4.74 5.942-7.5-4.532 3.637-6.908 6.44-6.127 7.785 1.774 3.056 18.938-2.955 38.044-13.918 19.107-10.964 32.92-22.74 31.139-25.797" clip-rule="evenodd"/><path fill="#fa00e9" d="M38.028 32.726a3.42 3.42 0 0 1 .698-4.306 3.466 3.466 0 0 1 4.383-.157 3.43 3.43 0 0 1 1.267 1.943 3.42 3.42 0 0 1-.26 2.302 3.45 3.45 0 0 1-1.67 1.615 3.47 3.47 0 0 1-2.32.194 3.34 3.34 0 0 1-2.098-1.591"/></g><defs><linearGradient id="b" x1="6.986" x2="57.55" y1="10.227" y2="60.821" gradientUnits="userSpaceOnUse"><stop offset=".094" stop-color="#fa00e9"/><stop offset="1" stop-color="#3860ff"/></linearGradient><clipPath id="a"><path fill="#fff" d="M0 0h72v72H0z"/></clipPath></defs></svg>
